X:690
M:C|
L:1/8
K:G
c|BGdG BGGB|cEAG FDDc|1 BGdG BGGB|EcAF G2G:|2
c|Bcdg ecgc|BGdG FDDc|Bcdg efge|dBcA G/G/G Gc|

